portfolio/adventure/img/svg/zoom.svg

<svg xmlns="http://www.w3.org/2000/svg" width="12" height="11"><path d="M11.127 10.748l-.277.266a.8.8 0 0 1-1.104 0L7.535 8.882a.724.724 0 0 1-.11-.906L6.217 6.81a3.98 3.98 0 0 1-2.323.744c-2.157 0-3.906-1.688-3.906-3.771 0-2.082 1.749-3.769 3.906-3.769 2.158 0 3.907 1.687 3.907 3.769 0 .97-.382 1.85-1.005 2.518l1.182 1.141a.792.792 0 0 1 .939.107l2.21 2.133a.735.735 0 0 1 0 1.066zm-4.311-6.98C6.816 2.206 5.504.94 3.886.94c-.451 0-.873.107-1.254.282.204.202.512.503.528.503-.318 0-1.357 1.004-1.357 1.334 0-.016-.331-.319-.547-.515a2.72 2.72 0 0 0-.3 1.224c0 1.562 1.312 2.828 2.93 2.828s2.93-1.266 2.93-2.828z" fill-rule="evenodd"/></svg>

<svg xmlns="http://www.w3.org/2000/svg" xmlns:xlink="http://www.w3.org/1999/xlink" preserveaspectratio="xMidYMid" width="12" height="11" viewbox="0 0 12 11">
  <path d="M11.127,10.748 C11.127,10.748 10.850,11.014 10.850,11.014 C10.545,11.309 10.051,11.309 9.746,11.014 C9.746,11.014 7.535,8.882 7.535,8.882 C7.279,8.634 7.251,8.264 7.425,7.976 C7.425,7.976 6.217,6.810 6.217,6.810 C5.567,7.275 4.765,7.554 3.894,7.554 C1.737,7.554 -0.012,5.866 -0.012,3.783 C-0.012,1.701 1.737,0.014 3.894,0.014 C6.052,0.014 7.801,1.701 7.801,3.783 C7.801,4.753 7.419,5.633 6.796,6.301 C6.796,6.301 7.978,7.442 7.978,7.442 C8.277,7.275 8.661,7.301 8.917,7.549 C8.917,7.549 11.127,9.682 11.127,9.682 C11.432,9.976 11.432,10.454 11.127,10.748 ZM6.816,3.768 C6.816,2.206 5.504,0.940 3.886,0.940 C3.435,0.940 3.013,1.047 2.632,1.222 C2.836,1.424 3.144,1.725 3.160,1.725 C2.842,1.725 1.803,2.729 1.803,3.059 C1.803,3.043 1.472,2.740 1.256,2.544 C1.070,2.915 0.956,3.327 0.956,3.768 C0.956,5.330 2.268,6.596 3.886,6.596 C5.504,6.596 6.816,5.330 6.816,3.768 Z" id="zoom" fill-rule="evenodd"/>
</svg>
